svgs/sharp-solid/robot-astromech.svg

<svg xmlns="http://www.w3.org/2000/svg" viewBox="0 0 512 512"><!--! Font Awesome Pro 6.6.0 by @fontawesome - https://fontawesome.com License - https://fontawesome.com/license (Commercial License) Copyright 2024 Fonticons, Inc. --><path d="M128 128l0 32 256 0 0-32C384 57.3 326.7 0 256 0S128 57.3 128 128zm96-64a32 32 0 1 1 0 64 32 32 0 1 1 0-64zm64 48a16 16 0 1 1 32 0 16 16 0 1 1 -32 0zM0 512l128 0 0-128 64 64 128 0 64-64 0 128 128 0 0-32-48-64 0-224L48 192l0 224L0 480l0 32zM208 256l96 0 16 0 0 32-16 0-96 0-16 0 0-32 16 0zm0 64l96 0 16 0 0 32-16 0-96 0-16 0 0-32 16 0z"/></svg>

<svg xmlns="http://www.w3.org/2000/svg" viewBox="0 0 512 512"><!--! Font Awesome Pro 6.4.2 by @fontawesome - https://fontawesome.com License - https://fontawesome.com/license (Commercial License) Copyright 2023 Fonticons, Inc. --><path d="M128 128v32H384V128C384 57.3 326.7 0 256 0S128 57.3 128 128zm96-64a32 32 0 1 1 0 64 32 32 0 1 1 0-64zm64 48a16 16 0 1 1 32 0 16 16 0 1 1 -32 0zM0 512H128V384l64 64H320l64-64V512H512V480l-48-64V192H48V416L0 480v32zM208 256h96 16v32H304 208 192V256h16zm0 64h96 16v32H304 208 192V320h16z"/></svg>
